build/img/landings/motion/motion-need-2.svg

<svg width="433" height="353" fill="none" xmlns="http://www.w3.org/2000/svg"><path d="M321.104 86.992l-13.824 42.477-26.055-14.607c-5.766-3.229-9.011-.677-7.216 5.682l15.6 55.252-33.051 16.94c-4.744 2.433-4.744 6.409 0 8.843l33.057 16.939-15.6 55.252c-1.794 6.359 1.45 8.912 7.217 5.682l26.048-14.613 13.824 42.484c2.598 7.989 6.852 7.989 9.456 0l13.824-42.477 26.055 14.606c5.767 3.23 9.011.677 7.216-5.682l-15.6-55.252 33.057-16.939c4.744-2.434 4.744-6.41 0-8.843l-33.057-16.94 15.6-55.252c1.795-6.359-1.449-8.911-7.216-5.682l-26.055 14.607-13.824-42.477c-2.598-7.99-6.852-7.99-9.456 0z" fill="#171717"/><path d="M57.785 60v92.159C25.822 152.433 0 178.42 0 210.383c0 32.017 25.822 58.003 57.785 58.223v83.826h291.773V60H57.785z" fill="#FFDF57"/><path d="M176.479 117.401c-4.002 12.171 11.349 17.105 19.901 18.585.494.055.877.055 1.261-.11.11.055.274.055.384.11 8.552-17.489 26.261-22.916 53.837-17.653 32.017 6.085 33.717 26.041 33.717 26.041 1.919-2.741 5.976-5.866 11.02-8.278.328-.494.657-1.042.986-1.59 0-.055.055-.11.055-.11 1.645-.274 3.07-1.864 1.974-3.673-10.088-17.105-26.371-39.528-45.723-47.04-6.031-2.302-12.171-1.37-15.187 4.88-1.535 3.125-1.48 6.25-.658 9.32-8.991-6.469-18.64-11.897-28.947-16.118-9.704-3.947-23.903-10.307-34.374-5.757-7.676 3.345-10.362 11.788-8.553 19.627 1.7 7.621 7.346 12.884 13.706 17.051-1.48 1.096-2.686 2.631-3.399 4.715z" fill="#201000"/><path d="M193.31 232.586c7.401 12.884 22.149 15.844 37.335 15.241l6.141 36.952s7.511 19.133 32.181 14.199c9.485-1.919 19.408-13.377 19.408-13.377s-2.741-14.364-5.921-60.416c12.007-9.265 15.296-34.046 15.296-34.046 25.11-4.112 47.478-20.997 36.842-45.394-7.566-17.27-25.713-15.515-37.993-9.594-5.044 2.412-9.101 5.537-11.02 8.278 0 0-1.645-19.901-33.717-26.041-27.576-5.263-45.23.164-53.837 17.653-3.125 6.36-5.044 14.364-5.866 24.013-2.303 29.221-6.36 59.484 1.151 72.532z" fill="#fff"/><path d="M261.237 302.652c-20.231 0-27.029-16.612-27.084-16.831-.054-.165-.109-.384-.164-.549l-5.756-34.484c-18.586.329-30.757-5.208-37.445-16.721-6.908-11.952-4.77-36.129-2.522-61.678.383-4.166.712-8.333 1.041-12.499.823-10.198 2.851-18.366 6.141-25.055 9.046-18.476 27.686-24.78 56.907-19.188 23.684 4.495 31.798 16.282 34.594 23.245 2.248-1.919 5.154-3.728 8.388-5.263 4.66-2.248 16.667-6.963 27.906-2.796 6.25 2.357 10.964 6.963 13.925 13.816 4.057 9.32 3.893 18.42-.439 26.425-5.975 10.965-19.517 19.298-36.512 22.532-1.042 6.141-4.935 24.068-14.858 32.84 3.125 44.079 5.757 58.443 5.812 58.607.164.822-.055 1.754-.658 2.357-.439.494-10.691 12.281-20.998 14.31-2.96.657-5.702.932-8.278.932zm-21.656-18.695c.932 2.138 8.169 16.337 28.892 12.225 6.908-1.37 14.364-8.826 16.886-11.513-.767-4.605-3.07-20.943-5.756-59.319a2.911 2.911 0 011.096-2.467c10.965-8.498 14.2-31.908 14.2-32.182.164-1.261 1.096-2.248 2.357-2.413 16.009-2.631 29.221-10.306 34.484-20.01 3.509-6.47 3.619-13.706.22-21.437-2.358-5.372-5.976-8.991-10.746-10.745-6.359-2.357-15.131-1.425-23.465 2.577-4.44 2.138-8.223 4.934-9.923 7.346-.712.987-1.919 1.426-3.07 1.097a2.874 2.874 0 01-2.083-2.522c-.055-.713-2.138-17.873-31.414-23.465-26.755-5.099-42.873.055-50.713 16.118-2.96 5.976-4.824 13.706-5.592 23.026-.329 4.167-.712 8.388-1.041 12.555-2.084 23.574-4.222 47.916 1.809 58.333 5.756 10.033 17.105 14.583 34.758 13.816 1.371-.11 2.687.932 2.906 2.357l6.195 36.623z" fill="#201000"/><path d="M219.954 198.595c-.877 0-1.7-.383-2.248-1.096-10.197-13.213-4.934-28.399 7.566-50.219.767-1.37 2.522-1.809 3.892-1.042 1.371.768 1.81 2.522 1.042 3.893-13.322 23.3-15.351 34.375-8.004 43.914a2.919 2.919 0 01-.494 4.002c-.548.329-1.151.548-1.754.548zm38.635-39.993a3.235 3.235 0 10-1.377-6.321 3.235 3.235 0 001.377 6.321zm-47.486-.38a3.236 3.236 0 00-1.377-6.321 3.234 3.234 0 101.377 6.321zm83.851 13.674c-.219 0-.493-.055-.712-.11-1.535-.383-2.467-1.918-2.029-3.453 1.7-6.744 12.226-19.847 23.52-20.011h.054c1.536 0 2.797 1.261 2.851 2.796 0 1.59-1.206 2.851-2.796 2.905-8.497.165-16.94 11.294-18.092 15.735-.383 1.316-1.535 2.138-2.796 2.138zm-30.647-31.085c-.329 0-.658-.055-.987-.165l-7.565-2.85c-1.481-.549-2.193-2.193-1.645-3.674.548-1.48 2.193-2.193 3.673-1.644l7.566 2.851c1.48.548 2.193 2.192 1.645 3.673-.494 1.096-1.535 1.809-2.687 1.809zm-60.635 1.863a2.888 2.888 0 01-2.687-1.864c-.548-1.48.22-3.125 1.645-3.673l7.566-2.851c1.48-.548 3.125.165 3.673 1.645s-.219 3.125-1.645 3.673l-7.565 2.851a2.144 2.144 0 01-.987.219zm54.001 61.568c-.329-3.618-6.03-3.673-5.701 0 .274 3.125-2.577 6.415-5.866 5.702-3.564-.768-5.099 4.715-1.536 5.482 6.689 1.426 13.761-4.166 13.103-11.184zM112.718 352.98h-.383c-1.535-.219-2.632-1.645-2.413-3.18 11.13-81.688 79.495-73.519 120.394-68.585 2.358.275 4.66.549 6.853.823 1.535.164 2.687 1.59 2.522 3.125a2.84 2.84 0 01-3.125 2.522 806.919 806.919 0 00-6.853-.823c-41.282-4.934-103.672-12.445-114.089 63.706-.274 1.371-1.48 2.412-2.906 2.412zm233.989-58.004c-.164 0-.274 0-.439-.055-.219-.055-23.081-3.564-58.113-6.524a2.764 2.764 0 01-2.577-3.07 2.794 2.794 0 013.07-2.577c35.252 2.961 58.278 6.524 58.498 6.524 1.535.219 2.631 1.7 2.357 3.235-.219 1.425-1.425 2.467-2.796 2.467z" fill="#201000"/></svg>

<svg width="433" height="353" viewBox="0 0 433 353" fill="none" xmlns="http://www.w3.org/2000/svg">
<path d="M321.104 86.9918L307.28 129.469L281.225 114.862C275.459 111.633 272.214 114.185 274.009 120.544L289.609 175.796L256.558 192.736C251.814 195.169 251.814 199.145 256.558 201.579L289.615 218.518L274.015 273.77C272.221 280.129 275.465 282.682 281.232 279.452L307.28 264.839L321.104 307.323C323.702 315.312 327.956 315.312 330.56 307.323L344.384 264.846L370.439 279.452C376.206 282.682 379.45 280.129 377.655 273.77L362.055 218.518L395.112 201.579C399.856 199.145 399.856 195.169 395.112 192.736L362.055 175.796L377.655 120.544C379.45 114.185 376.206 111.633 370.439 114.862L344.384 129.469L330.56 86.9918C327.962 79.0019 323.708 79.0019 321.104 86.9918Z" fill="#171717"/>
<path d="M57.7846 60V152.159C25.8222 152.433 0 178.42 0 210.383C0 242.4 25.8222 268.386 57.7846 268.606V352.432H349.558V60H57.7846Z" fill="#FFDF57"/>
<path d="M176.479 117.401C172.477 129.572 187.828 134.506 196.38 135.986C196.874 136.041 197.257 136.041 197.641 135.876C197.751 135.931 197.915 135.931 198.025 135.986C206.577 118.497 224.286 113.07 251.862 118.333C283.879 124.418 285.579 144.374 285.579 144.374C287.498 141.633 291.555 138.508 296.599 136.096C296.927 135.602 297.256 135.054 297.585 134.506C297.585 134.451 297.64 134.396 297.64 134.396C299.285 134.122 300.71 132.532 299.614 130.723C289.526 113.618 273.243 91.1947 253.891 83.6838C247.86 81.3812 241.72 82.3132 238.704 88.5632C237.169 91.6882 237.224 94.8131 238.046 97.8833C229.055 91.414 219.406 85.9864 209.099 81.765C199.395 77.8177 185.196 71.4581 174.725 76.0085C167.049 79.3527 164.363 87.7956 166.172 95.6355C167.872 103.256 173.518 108.519 179.878 112.686C178.398 113.782 177.192 115.317 176.479 117.401Z" fill="#201000"/>
<path d="M193.31 232.586C200.711 245.47 215.459 248.43 230.645 247.827L236.786 284.779C236.786 284.779 244.297 303.912 268.967 298.978C278.452 297.059 288.375 285.601 288.375 285.601C288.375 285.601 285.634 271.237 282.454 225.185C294.461 215.92 297.75 191.139 297.75 191.139C322.86 187.027 345.228 170.142 334.592 145.745C327.026 128.475 308.879 130.23 296.599 136.151C291.555 138.563 287.498 141.688 285.579 144.429C285.579 144.429 283.934 124.528 251.862 118.388C224.286 113.125 206.632 118.552 198.025 136.041C194.9 142.401 192.981 150.405 192.159 160.054C189.856 189.275 185.799 219.538 193.31 232.586Z" fill="white"/>
<path d="M261.237 302.652C241.006 302.652 234.208 286.04 234.153 285.821C234.099 285.656 234.044 285.437 233.989 285.272L228.233 250.788C209.647 251.117 197.476 245.58 190.788 234.067C183.88 222.115 186.018 197.938 188.266 172.389C188.649 168.223 188.978 164.056 189.307 159.89C190.13 149.692 192.158 141.524 195.448 134.835C204.494 116.359 223.134 110.055 252.355 115.647C276.039 120.142 284.153 131.929 286.949 138.892C289.197 136.973 292.103 135.164 295.337 133.629C299.997 131.381 312.004 126.666 323.243 130.833C329.493 133.19 334.207 137.796 337.168 144.649C341.225 153.969 341.061 163.069 336.729 171.074C330.754 182.039 317.212 190.372 300.217 193.606C299.175 199.747 295.282 217.674 285.359 226.446C288.484 270.525 291.116 284.889 291.171 285.053C291.335 285.875 291.116 286.807 290.513 287.41C290.074 287.904 279.822 299.691 269.515 301.72C266.555 302.377 263.813 302.652 261.237 302.652ZM239.581 283.957C240.513 286.095 247.75 300.294 268.473 296.182C275.381 294.812 282.837 287.356 285.359 284.669C284.592 280.064 282.289 263.726 279.603 225.35C279.548 224.418 279.932 223.486 280.699 222.883C291.664 214.385 294.899 190.975 294.899 190.701C295.063 189.44 295.995 188.453 297.256 188.288C313.265 185.657 326.477 177.982 331.74 168.278C335.249 161.808 335.359 154.572 331.96 146.841C329.602 141.469 325.984 137.85 321.214 136.096C314.855 133.739 306.083 134.671 297.749 138.673C293.309 140.811 289.526 143.607 287.826 146.019C287.114 147.006 285.907 147.445 284.756 147.116C283.605 146.787 282.782 145.8 282.673 144.594C282.618 143.881 280.535 126.721 251.259 121.129C224.504 116.03 208.386 121.184 200.546 137.247C197.586 143.223 195.722 150.953 194.954 160.273C194.625 164.44 194.242 168.661 193.913 172.828C191.829 196.402 189.691 220.744 195.722 231.161C201.478 241.194 212.827 245.744 230.48 244.977C231.851 244.867 233.167 245.909 233.386 247.334L239.581 283.957Z" fill="#201000"/>
<path d="M219.954 198.595C219.077 198.595 218.254 198.212 217.706 197.499C207.509 184.286 212.772 169.1 225.272 147.28C226.039 145.91 227.794 145.471 229.164 146.238C230.535 147.006 230.974 148.76 230.206 150.131C216.884 173.431 214.855 184.506 222.202 194.045C223.134 195.306 222.914 197.06 221.708 198.047C221.16 198.376 220.557 198.595 219.954 198.595Z" fill="#201000"/>
<path d="M258.589 158.602C260.334 158.222 261.441 156.499 261.061 154.753C260.681 153.008 258.958 151.901 257.212 152.281C255.467 152.661 254.36 154.384 254.74 156.13C255.12 157.875 256.843 158.982 258.589 158.602Z" fill="#201000"/>
<path d="M211.103 158.222C212.848 157.841 213.955 156.118 213.575 154.373C213.195 152.627 211.472 151.52 209.726 151.901C207.98 152.281 206.874 154.004 207.254 155.749C207.634 157.495 209.357 158.602 211.103 158.222Z" fill="#201000"/>
<path d="M294.954 171.896C294.735 171.896 294.461 171.841 294.242 171.786C292.707 171.403 291.775 169.868 292.213 168.333C293.913 161.589 304.439 148.486 315.733 148.322H315.787C317.323 148.322 318.584 149.583 318.638 151.118C318.638 152.708 317.432 153.969 315.842 154.023C307.345 154.188 298.902 165.317 297.75 169.758C297.367 171.074 296.215 171.896 294.954 171.896Z" fill="#201000"/>
<path d="M264.307 140.811C263.978 140.811 263.649 140.756 263.32 140.646L255.755 137.796C254.274 137.247 253.562 135.603 254.11 134.122C254.658 132.642 256.303 131.929 257.783 132.478L265.349 135.329C266.829 135.877 267.542 137.521 266.994 139.002C266.5 140.098 265.459 140.811 264.307 140.811Z" fill="#201000"/>
<path d="M203.672 142.674C202.52 142.674 201.424 141.962 200.985 140.81C200.437 139.33 201.205 137.685 202.63 137.137L210.196 134.286C211.676 133.738 213.321 134.451 213.869 135.931C214.417 137.411 213.65 139.056 212.224 139.604L204.659 142.455C204.33 142.62 204.001 142.674 203.672 142.674Z" fill="#201000"/>
<path d="M257.673 204.242C257.344 200.624 251.643 200.569 251.972 204.242C252.246 207.367 249.395 210.657 246.106 209.944C242.542 209.176 241.007 214.659 244.57 215.426C251.259 216.852 258.331 211.26 257.673 204.242Z" fill="#201000"/>
<path d="M112.718 352.98C112.609 352.98 112.444 352.98 112.335 352.98C110.8 352.761 109.703 351.335 109.922 349.8C121.052 268.112 189.417 276.281 230.316 281.215C232.674 281.49 234.976 281.764 237.169 282.038C238.704 282.202 239.856 283.628 239.691 285.163C239.527 286.698 238.156 287.849 236.566 287.685C234.373 287.411 232.071 287.136 229.713 286.862C188.431 281.928 126.041 274.417 115.624 350.568C115.35 351.939 114.144 352.98 112.718 352.98Z" fill="#201000"/>
<path d="M346.707 294.976C346.543 294.976 346.433 294.976 346.268 294.921C346.049 294.866 323.187 291.357 288.155 288.397C286.565 288.287 285.414 286.917 285.578 285.327C285.688 283.737 287.113 282.586 288.648 282.75C323.9 285.711 346.926 289.274 347.146 289.274C348.681 289.493 349.777 290.974 349.503 292.509C349.284 293.934 348.078 294.976 346.707 294.976Z" fill="#201000"/>
</svg>
